X: 36307
T: Seamus O'Donnell's
R: reel
M: 4/4
K: Ddorian
G|:ADDC F2GE|CCDC EGcB|ADDE F2GE|CAGE Addc|
ADDC F2GE|CCDC EGGc|Addc AGED|1 A/B/cGE EDDC:|2 A/B/cGE Eddc||
|:ddfd adfd|ccec gece|ddfd adf/g/a|gfeg fddc|
ddfd adfd|ccec gece|defg aeee|1 gece dddc:|2 gece dedc||

